X: 1
T: Johnnie Wilmot's Fiddle
M: 4/4
L: 1/8
R: reel
K: Ador
|: BEED EDB,E | DB,A,B, DEFd | AD(3DDD FEDF |1 ABdA BdAF :|
2 ABdF E3 (B ||
|: B) e2 f gfeg | fedf edBA | B/^c/dAd FDDF | ABdA BdAF |
[1 Ee2f gfeg | fedf edBA | B/^c/dAd FDDF | ABdF E3 (B :|
[2 BEED EDB,E | DB,A,B, DEFd | AD(3DDD FEDF | ABdF E3 A ||
